**kern	**kern	**dynam
*part1	*part1	*part1
*staff2	*staff1	*
*I"Piano	*	*
*clefF4	*clefG2	*
*k[b-e-a-d-g-]	*k[b-e-a-d-g-]	*
=1	=1	=1
[2C [2c	[2f [2a-	.
4C] 4c]	4f] 4a-]	.
(4c	8r	.
.	8f 8a-	mf
=	=	=
4Bn	8r	.
.	4f 4a-	.
4c	.	.
.	4f 4a-	.
4d-	.	.
.	4f 4a-	.
4c	.	.
.	8f 8a-	.
*clefG2	*	*
=	=	=
[2a-	[2cc [2ff	>
4a-])	4cc] 4ff]	.
4r	4r	]
*clefF4	*	*
=	=	=
*	*^	*
1B-^ 1c	(1b-^ 1cc	8re	.
.	.	4b- 4cc	.
*^	*	*	*
.	4Gn	.	.	.
.	.	.	4gn	.
.	4En	.	.	.
.	.	.	4en	.
.	4C	.	.	.
.	.	.	8c)	.
*v	*v	*	*	*
=	=	=	=
1E-X^ 1F	(1e-X^ 1f	8re	.
.	.	4e- 4f	.
*^	*	*	*
.	4C	.	.	.
.	.	.	4c	.
.	4AAn	.	.	.
.	.	.	4An<	.
.	4FF	.	.	.
.	.	.	8F<)	.
*v	*v	*	*	*
=	=	=	=
1AA-X^ 1BB-	(1A-X^< 1B-<	8rGG	.
.	.	4A-< 4B-<	.
*^	*	*	*
.	4FF	.	.	.
.	.	.	4F<	.
.	4DDn	.	.	.
.	.	.	4Dn<	.
.	4BBB-	.	.	.
.	.	.	8BB-<)	.
*v	*v	*	*	*
*	*v	*v	*
=	=	=
4EE-	8rCC	.
.	(4E-<	.
4GG-	.	.
.	4G-<	.
4BB-	.	.
.	4B-<	.
4E-	.	.
.	8e-)	.
=	=	=
*-	*-	*-
!!!system-decoration: {(s1,s2)}
!!!RDF**kern: < = below
